dist/img/icon-beat-yandex.svg

<svg width="79" height="30" viewBox="0 0 79 30" fill="none" xmlns="http://www.w3.org/2000/svg">
<g clip-path="url(#clip0_4689_25591)">
<path d="M10.1739 2.43478H8.6087C6.34783 2.43478 4.08696 3.91304 4.08696 8.34783C4.08696 12.6087 6.08696 13.913 8.6087 13.913H10.087V2.43478H10.1739ZM7.73913 16.2609L3.30435 26.3478H0L4.95652 15.5652C2.6087 14.3478 1.04348 12.2609 1.04348 8.26087C1.04348 2.69565 4.52174 0 8.69565 0H12.9565V26.3478H10.087V16.2609H7.73913Z" fill="#FF3435"/>
<path d="M68.1738 17.0435C68.1738 11.2174 70.4347 7.47827 74.7825 7.47827C76.4347 7.47827 77.3912 7.91305 78.1738 8.43479L77.739 11.1304C76.9564 10.4348 75.826 9.8261 74.6955 9.8261C72.6086 9.8261 71.1303 12.1739 71.1303 16.8696C71.1303 21.4783 72.2608 24.1739 74.5216 24.1739C75.9129 24.1739 76.9564 23.6522 77.6521 23.0435L78.3477 25.2174C77.3912 26.087 76.1738 26.6087 74.4347 26.6087C70.5216 26.6087 68.1738 23.3913 68.1738 17.0435ZM59.739 17.1304V26.3478H56.8695V7.73914H59.739V16.3478L64.1738 7.73914H67.1303L62.5216 16.5217L67.826 26.3478H64.6956L59.739 17.1304ZM46.1738 15.3913H50.9564C50.9564 12.2609 50.4347 9.91305 48.7825 9.91305C47.0434 9.91305 46.4347 12.087 46.1738 15.3913ZM49.3912 26.6087C45.5651 26.6087 43.2173 23.5652 43.2173 17.8261C43.2173 11.8261 44.8695 7.47827 48.7825 7.47827C51.9129 7.47827 53.9129 9.8261 53.9129 16.087V17.6522H46.1738C46.1738 21.8261 47.3912 24.087 49.6521 24.087C51.3042 24.087 52.6086 23.3913 53.3042 22.8696L53.9999 25.0435C52.7825 26 51.2173 26.6087 49.3912 26.6087ZM37.1303 10.087H33.9129V10.4348C33.9129 14.3478 33.739 20.087 32.1738 24H37.1303V10.087ZM41.4782 30H38.8695V26.3478H30.8695V30H28.2608V24H29.3912C31.1303 20.087 31.3042 14.2609 31.3042 9.39131V7.73914H39.9999V24H41.4782V30ZM26.6956 7.73914V26.3478H23.826V18H19.5651V26.3478H16.6956V7.73914H19.5651V15.6522H23.826V7.73914H26.6956Z" fill="black"/>
</g>
<defs>
<clipPath id="clip0_4689_25591">
<rect width="78.4348" height="30" fill="white"/>
</clipPath>
</defs>
</svg>

<svg xmlns="http://www.w3.org/2000/svg" width="79" height="30" fill="none" viewBox="0 0 79 30"><g clip-path="url(#a)"><path fill="#FF3435" d="M10.174 2.435H8.609c-2.261 0-4.522 1.478-4.522 5.913 0 4.26 2 5.565 4.522 5.565h1.478V2.435zM7.739 16.26 3.304 26.348H0l4.957-10.783c-2.348-1.217-3.914-3.304-3.914-7.304C1.043 2.696 4.522 0 8.696 0h4.26v26.348h-2.869V16.26z"/><path fill="#000" d="M68.174 17.044c0-5.827 2.26-9.566 6.608-9.566 1.653 0 2.61.435 3.392.957l-.435 2.695c-.783-.695-1.913-1.304-3.044-1.304-2.086 0-3.565 2.348-3.565 7.044 0 4.608 1.13 7.304 3.392 7.304 1.39 0 2.434-.522 3.13-1.13l.696 2.173c-.957.87-2.174 1.392-3.913 1.392-3.913 0-6.261-3.218-6.261-9.565m-8.435.086v9.218h-2.87V7.739h2.87v8.609l4.435-8.609h2.956l-4.608 8.783 5.304 9.826h-3.13zm-13.565-1.739h4.782c0-3.13-.521-5.478-2.174-5.478-1.739 0-2.347 2.174-2.608 5.478M49.39 26.61c-3.826 0-6.174-3.044-6.174-8.783 0-6 1.653-10.348 5.566-10.348 3.13 0 5.13 2.348 5.13 8.609v1.565h-7.74c0 4.174 1.218 6.435 3.48 6.435 1.651 0 2.956-.696 3.651-1.217L54 25.044c-1.218.956-2.783 1.565-4.609 1.565m-12.26-16.522h-3.218v.348c0 3.913-.174 9.652-1.74 13.565h4.957zM41.477 30H38.87v-3.652h-8V30h-2.61v-6h1.131c1.74-3.913 1.913-9.74 1.913-14.609V7.74H40V24h1.478zM26.696 7.74v18.608h-2.87V18h-4.26v8.348h-2.87V7.739h2.87v7.913h4.26V7.74z"/></g><defs><clipPath id="a"><path fill="#fff" d="M0 0h78.435v30H0z"/></clipPath></defs></svg>
